X:1
T:Ecce quomodo - Handl
T:James Gibb editions
T:#
%%score [ 1 2 3 4 ]
L:1/8
Q:1/4=200
M:none
K:F
V:1 treble nm="Soprano" snm="S"
V:2 treble nm="Alto" snm="A"
V:3 treble-8 nm="Tenor" snm="T"
V:4 bass nm="Bass" snm="B"
V:1
"^Ecce quomodo moritur justus""^Jacob Handl\n(1550-1591)" A16 | G8 z4 A4- | A2 A2 A4 B8- | %3
w: Ec-|ce quo\-|* mo- do mo\-|
 B4 A4 A8 | G16 | G8 z4 G4 | A8 G4 F4- | F2 F2 E4 F8 | E8 z4 A4 | c8 c4 B4- | B2 B2 A4 G8 | %11
w: * ri- tur|ju-|stus, et|ne- mo per\-|* ci- pit cor-|de, et|ne- mo per\-|* ci- pit cor-|
 ^F8 z4 F4- | F4 G4 A8 | A4 A4 B8 | A8 z4 c4- | c4 B8 A4 | A4 A8 A4 | G8 z4 G4 | A6 A2 A4 G4 | %19
w: de: vi\-|* ri ju-|sti tol- lun-|tur, et|* ne- mo|con- si- de-|rat: a|fa- ci- e i-|
 A4 A4 A8 | A8 z4 A4- | A4 c8 B4 | A4 G8 A4 | z4 c4 f4 f4 | e4 d8 c4 | B4 B6 B2 A4 | G8 A8 | %27
w: ni- qui- ta-|tis sub\-|* la- tus|est ju- stus:|Et e- rit|in pa- ce|me- mo- ri- a|e- ius,|
 z4 c4 f4 f4 | e4 d8 c4 | B4 B6 B2 A4 | G8 A16 ||"^Secunda pars" c8 c8 | c4 A8 A4 | A4 A8 A4 | %34
w: et e- rit|in pa- ce|me- mo- ri- a|e- ius,|In pa-|ce fa- ctus|est lo- cus|
 A8 A8 | z4 c8 c4 | d8 c4 e4 | e4 e6 e2 (f4- | f4 e2 d2 e4) e4 | f8 z4 c4- | c4 c4 d8 | %41
w: e- ius,|et in|Si- on ha-|bi- ta- ti- o|* * * * e-|ius, et|* in Si-|
 c4 e4 e4 e4- | e2 e2 (f8 e2 d2 | e4) e4 f8 | z4 c4 f4 f4 | e4 d8 c4 | B4 B6 B2 A4 | G8 A8 | %48
w: on ha- bi- ta\-|* ti- o * *|* e- ius:|Et e- rit|in pa- ce|me- mo- ri- a|e- ius,|
 z4 c4 f4 f4 |[Q:1/4=198] e4[Q:1/4=193] d8[Q:1/4=188] c4 | %50
w: et e- rit|in pa- ce|
[Q:1/4=185] B4[Q:1/4=182] B6[Q:1/4=179] B2[Q:1/4=177] A4 |[Q:1/4=172] G8[Q:1/4=170] A16 |] %52
w: me- mo- ri- a|e- ius,|
V:2
 F16 | E8 z4 F4- | F2 F2 F4 F8- | F4 F4 F4 (F4- | F4 E4 D8) | E8 z4 E4 | F8 E4 D4- | D2 D2 ^C4 D8 | %8
w: Ec-|ce quo\-|* mo- do mo\-|* ri- tur ju\-||stus, et|ne- mo per\-|* ci- pit cor-|
 ^C8 z4 E4 | A8 A4 F4- | F2 F2 F4 D8 | D8 z4 D4- | D4 D4 F8 | F4 F4 F8 | F8 z4 A4- | A4 G8 E4 | %16
w: de, et|ne- mo per\-|* ci- pit cor-|de: vi\-|* ri ju-|sti tol- lun-|tur, et|* ne- mo|
 F4 F8 F4 | E8 z4 E4 | F6 F2 F4 D4 | F4 F4 E8 | ^F8 z4 =F4- | F4 G8 F4 | F4 D8 F4 | z4 A4 c4 c4 | %24
w: con- si- de-|rat: a|fa- ci- e i-|ni- qui- ta-|tis sub\-|* la- tus|est ju- stus:|Et e- rit|
 c4 B8 A4 | G4 G6 G2 F4- | F4 E4 F8 | z4 A4 c4 c4 | c4 B8 A4 | G4 G6 G2 F4- | F4 E4 F16 || %31
w: in pa- ce|me- mo- ri- a|* e- ius,|et e- rit|in pa- ce|me- mo- ri- a|* e- ius,|
 z4 A4 G8 | A4 F8 F4 | F4 D8 E4 | F8 E8 | z4 A8 G4 | B8 A4 c4 | c4 c6 c2 B4 | c16 | c8 z4 A4- | %40
w: In pa-|ce fa- ctus|est lo- cus|e- ius,|et in|Si- on ha-|bi- ta- ti- o|e-|ius, et|
 A4 G4 B8 | A4 c4 c4 c4- | c2 c2 B4 c8- | c8 c8 | z4 A4 c4 c4 | c4 B8 A4 | G4 G6 G2 F4- | %47
w: * in Si-|on ha- bi- ta\-|* ti- o e\-|* ius:|Et e- rit|in pa- ce|me- mo- ri- a|
 F4 E4 F8 | z4 A4 c4 c4 | c4 B8 A4 | G4 G6 G2 F4- | F4 E4 F16 |] %52
w: * e- ius,|et e- rit|in pa- ce|me- mo- ri- a|* e- ius,|
V:3
 c16 | c8 z4 c4- | c2 c2 c4 d8- | d4 c4 c4 (d4- | d2 c2 c6 =B2 B4) | c8 z4 c4 | c8 c4 A4- | %7
w: Ec-|ce quo\-|* mo- do mo\-|* ri- tur ju\-||stus, et|ne- mo per\-|
 A2 A2 A4 A8 | A8 z4 c4 | f8 e4 d4- | d2 d2 c4 B8 | A8 z4 A4- | A4 =B4 c8 | c4 c4 d8 | c8 z4 f4- | %15
w: * ci- pit cor-|de, et|ne- mo per\-|* ci- pit cor-|de: vi\-|* ri ju-|sti tol- lun-|tur, et|
 f4 d8 ^c4 | d4 =c8 c4 | c8 z4 c4 | c6 c2 c4 =B4 | c4 d8 ^c4 | d8 z4 d4- | d4 _e8 d4 | c4 =B8 c4 | %23
w: * ne- mo|con- si- de-|rat: a|fa- ci- e i-|ni- qui- ta-|tis sub\-|* la- tus|est ju- stus:|
 z4 f4 a4 a4 | a4 f8 f4 | d4 _e6 e2 c4 | c8 c8 | z4 f4 a4 a4 | a4 f8 f4 | d4 _e6 e2 c4 | c8 c16 || %31
w: Et e- rit|in pa- ce|me- mo- ri- a|e- ius,|et e- rit|in pa- ce|me- mo- ri- a|e- ius,|
 z4 f8 e4 | f4 c8 c4 | d4 f8 e4 | d8 ^c8 | z4 e8 e4 | f8 f4 g4 | g4 g6 g2 f4 | g16 | a8 z4 e4- | %40
w: In pa-|ce fa- ctus|est lo- cus|e- ius,|et in|Si- on ha-|bi- ta- ti- o|e-|ius, et|
 e4 e4 f8 | f4 g4 g4 g4- | g2 g2 f4 g8- | g8 a8 | z4 f4 a4 a4 | a4 f8 f4 | d4 _e6 e2 c4 | c8 c8 | %48
w: * in Si-|on ha- bi- ta\-|* ti- o e\-|* ius:|Et e- rit|in pa- ce|me- mo- ri- a|e- ius,|
 z4 f4 a4 a4 | a4 f8 f4 | d4 _e6 e2 c4 | c8 c16 |] %52
w: et e- rit|in pa- ce|me- mo- ri- a|e- ius,|
V:4
 F,16 | C,8 z4 F,4- | F,2 F,2 F,4 B,8- | B,4 F,4 F,8 | G,16 | C,8 z4 C,4 | F,8 C,4 D,4- | %7
w: Ec-|ce quo\-|* mo- do mo\-|* ri- tur|ju-|stus, et|ne- mo per\-|
 D,2 D,2 A,,4 D,8 | A,,8 z4 A,4 | F,8 A,4 B,4- | B,2 B,2 F,4 G,8 | D,8 z4 D,4- | D,4 G,4 F,8 | %13
w: * ci- pit cor-|de, et|ne- mo per\-|* ci- pit cor-|de: vi\-|* ri ju-|
 F,4 F,4 B,,8 | F,8 z4 F,4- | F,4 G,8 A,4 | D,4 F,8 F,4 | C,8 z4 C,4 | F,6 F,2 F,4 G,4 | %19
w: sti tol- lun-|tur, et|* ne- mo|con- si- de-|rat: a|fa- ci- e i-|
 F,4 D,4 A,8 | D,8 z4 D,4- | D,4 C,8 D,4 | F,4 G,8 F,4 | z4 F,4 F,4 F,4 | A,4 B,8 F,4 | %25
w: ni- qui- ta-|tis sub\-|* la- tus|est ju- stus:|Et e- rit|in pa- ce|
 G,4 _E,6 E,2 F,4 | C,8 F,8 | z4 F,4 F,4 F,4 | A,4 B,8 F,4 | G,4 _E,6 E,2 F,4 | C,8 F,16 || %31
w: me- mo- ri- a|e- ius,|et e- rit|in pa- ce|me- mo- ri- a|e- ius,|
 z4 F,4 C,8 | F,4 F,8 F,4 | D,4 D,8 ^C,4 | D,8 A,,8 | z4 A,8 C4 | B,8 F,4 C4 | C4 C6 C2 D4 | C16 | %39
w: In pa-|ce fa- ctus|est lo- cus|e- ius,|et in|Si- on ha-|bi- ta- ti- o|e-|
 F,8 z4 A,4- | A,4 C4 B,8 | F,4 C4 C4 C4- | C2 C2 D4 C8- | C8 F,8 | z4 F,4 F,4 F,4 | A,4 B,8 F,4 | %46
w: ius, et|* in Si-|on ha- bi- ta\-|* ti- o e\-|* ius:|Et e- rit|in pa- ce|
 G,4 _E,6 E,2 F,4 | C,8 F,8 | z4 F,4 F,4 F,4 | A,4 B,8 F,4 | G,4 _E,6 E,2 F,4 | C,8 F,16 |] %52
w: me- mo- ri- a|e- ius,|et e- rit|in pa- ce|me- mo- ri- a|e- ius,|

